svgs/light/transporter-1.svg

<svg xmlns="http://www.w3.org/2000/svg" viewBox="0 0 512 512"><!--! Font Awesome Pro 6.6.0 by @fontawesome - https://fontawesome.com License - https://fontawesome.com/license (Commercial License) Copyright 2024 Fonticons, Inc. --><path d="M256 80a24 24 0 1 0 0-48 24 24 0 1 0 0 48zm0-80a56 56 0 1 1 0 112A56 56 0 1 1 256 0zM464 128c8.8 0 16 7.2 16 16l0 16 16 0c8.8 0 16 7.2 16 16s-7.2 16-16 16l-16 0 0 16c0 8.8-7.2 16-16 16s-16-7.2-16-16l0-16-16 0c-8.8 0-16-7.2-16-16s7.2-16 16-16l16 0 0-16c0-8.8 7.2-16 16-16zM48 320c8.8 0 16 7.2 16 16l0 16 16 0c8.8 0 16 7.2 16 16s-7.2 16-16 16l-16 0 0 16c0 8.8-7.2 16-16 16s-16-7.2-16-16l0-16-16 0c-8.8 0-16-7.2-16-16s7.2-16 16-16l16 0 0-16c0-8.8 7.2-16 16-16zm80 176c0 8.8-7.2 16-16 16s-16-7.2-16-16c0-26.5 21.5-48 48-48l224 0c26.5 0 48 21.5 48 48c0 8.8-7.2 16-16 16s-16-7.2-16-16s-7.2-16-16-16l-224 0c-8.8 0-16 7.2-16 16zM320 193.1l0 94.9-32 0 0-111.8c-1.6-.2-3.1-.2-4.7-.2l-54.6 0c-1.6 0-3.2 .1-4.7 .2L224 288l-32 0 0-94.9c-.5 .6-1 1.3-1.5 1.9l-65.7 86.7c-5.3 7-15.4 8.4-22.4 3.1s-8.4-15.4-3.1-22.4L165 175.7c15.1-19.9 38.7-31.7 63.7-31.7l54.6 0c25 0 48.6 11.7 63.7 31.7l65.7 86.7c5.3 7 4 17.1-3.1 22.4s-17.1 4-22.4-3.1L321.5 195c-.5-.7-1-1.3-1.5-1.9zM176 320l160 0c8.8 0 16 7.2 16 16s-7.2 16-16 16l-160 0c-8.8 0-16-7.2-16-16s7.2-16 16-16zm0 64l160 0c8.8 0 16 7.2 16 16s-7.2 16-16 16l-160 0c-8.8 0-16-7.2-16-16s7.2-16 16-16z"/></svg>

<svg xmlns="http://www.w3.org/2000/svg" viewBox="0 0 512 512"><!--! Font Awesome Pro 6.4.2 by @fontawesome - https://fontawesome.com License - https://fontawesome.com/license (Commercial License) Copyright 2023 Fonticons, Inc. --><path d="M256 80a24 24 0 1 0 0-48 24 24 0 1 0 0 48zm0-80a56 56 0 1 1 0 112A56 56 0 1 1 256 0zM464 128c8.8 0 16 7.2 16 16v16h16c8.8 0 16 7.2 16 16s-7.2 16-16 16H480v16c0 8.8-7.2 16-16 16s-16-7.2-16-16V192H432c-8.8 0-16-7.2-16-16s7.2-16 16-16h16V144c0-8.8 7.2-16 16-16zM48 320c8.8 0 16 7.2 16 16v16H80c8.8 0 16 7.2 16 16s-7.2 16-16 16H64v16c0 8.8-7.2 16-16 16s-16-7.2-16-16V384H16c-8.8 0-16-7.2-16-16s7.2-16 16-16H32V336c0-8.8 7.2-16 16-16zm80 176c0 8.8-7.2 16-16 16s-16-7.2-16-16c0-26.5 21.5-48 48-48H368c26.5 0 48 21.5 48 48c0 8.8-7.2 16-16 16s-16-7.2-16-16s-7.2-16-16-16H144c-8.8 0-16 7.2-16 16zM320 193.1V288H288V176.2c-1.6-.2-3.1-.2-4.7-.2H228.7c-1.6 0-3.2 .1-4.7 .2V288H192V193.1c-.5 .6-1 1.3-1.5 1.9l-65.7 86.7c-5.3 7-15.4 8.4-22.4 3.1s-8.4-15.4-3.1-22.4L165 175.7c15.1-19.9 38.7-31.7 63.7-31.7h54.6c25 0 48.6 11.7 63.7 31.7l65.7 86.7c5.3 7 4 17.1-3.1 22.4s-17.1 4-22.4-3.1L321.5 195c-.5-.7-1-1.3-1.5-1.9zM176 320H336c8.8 0 16 7.2 16 16s-7.2 16-16 16H176c-8.8 0-16-7.2-16-16s7.2-16 16-16zm0 64H336c8.8 0 16 7.2 16 16s-7.2 16-16 16H176c-8.8 0-16-7.2-16-16s7.2-16 16-16z"/></svg>
